X:2030
T:Bradley's
R:jig
C:Jerry Holland, SOCAN
O:20th Century Cape Breton
S:Tune ofthe Month, Jan 2000
A:<http://www.jerryholland.com>
N:Contacts ...
N:..... Jerry Holland <jerry@cranfordpub.com>
N:Tune books, related recordings
N:..... Cranford Publications <http://www.cranfordpub.com>
H:Copyrights - www.fiddlesticksmusic.com (SOCAN)
Z:Paul Stewart Cranford 
L:1/8
Q:300
M:6/8
K:Bb
c|B2 b gfd|cBc d2 F|GFG B2 c|dcc cBG|!
B2 b gfd|cBc d2 F|GFG B2c|dBB B2:|!
|:b|g2 b gfd|fgf fdf|g2 b gfd|fdc cdf|!
g2 b gfd|cBc d2 F|GFG B2c|dBB B2:|]!
